X: 261
T: Miss Macneil's Favorite
C:
R: reel
Q:
B: William Shepherd "2nd Collection" 1800 p.26 #1
F: http://imslp.org/wiki/File:PMLP73094-Shepherd_Collections_HMT.pdf
C: William Shepherd (17??-1812)
Z: 2012 John Chambers <jc:trillian.mit.edu>
M: 2/4
L: 1/16
K: Bb
F2 |\
TBABc d3B | e2c2 d2B2 | G3c TcdcB | A2F2 F2TF2 |\
TBABc d3B | e2c2 d2B2 | c3Tc (fg).f.e | d2B2TB2 :|
|: E2 |\
(DE)(.F.D) B,2D2 | E2G2 C2E2 | (DE)(.F.D) B,2cd | e2c2d2E2 |\
(DE)(.F.D) B,2D2 | E2G2 C2cd | (ed)cB (Ac)(.F.e) | d2B2TB2 :|
